temp/img/footer/linkedin.svg

<svg width="20" height="17" viewBox="0 0 20 17" fill="none" xmlns="http://www.w3.org/2000/svg">
<path d="M0.125 5.27734H4.34722V16.8885H0.125V5.27734Z" fill="#B4EC50"/>
<path d="M2.19953 4.22222H2.22428C3.53326 4.22222 4.34722 3.28374 4.34722 2.11076C4.32247 0.911929 3.53326 0 2.24881 0C0.964581 0 0.125 0.911929 0.125 2.11076C0.125 3.28374 0.940916 4.22222 2.19953 4.22222Z" fill="#B4EC50"/>
<path d="M11.318 16.8885V10.5525C11.318 10.2125 11.3442 9.87562 11.4443 9.6332C11.7195 8.95461 12.3442 8.25398 13.3955 8.25398C14.772 8.25398 15.3216 9.29456 15.3216 10.8189V16.8882H19.125V10.3827C19.125 6.89833 17.2488 5.27734 14.746 5.27734C12.7255 5.27734 11.8234 6.38011 11.318 7.15122V7.18831H11.2931C11.2997 7.17609 11.3105 7.16365 11.318 7.15122V5.54376H7.51392C7.56496 6.60791 7.51392 16.8882 7.51392 16.8882H11.318V16.8885Z" fill="#B4EC50"/>
</svg>

<svg width="20" height="17" viewBox="0 0 20 17" fill="none" xmlns="http://www.w3.org/2000/svg"><path d="M.125 5.277h4.222V16.89H.125V5.277zM2.2 4.222h.024c1.31 0 2.123-.938 2.123-2.111C4.322.91 3.533 0 2.25 0 .965 0 .125.912.125 2.11c0 1.174.816 2.112 2.075 2.112zm9.118 12.667v-6.336c0-.34.026-.677.126-.92.275-.678.9-1.379 1.951-1.379 1.377 0 1.927 1.04 1.927 2.565v6.07h3.803v-6.506c0-3.485-1.876-5.106-4.379-5.106-2.02 0-2.923 1.103-3.428 1.874v.037h-.025c.007-.012.018-.024.025-.037V5.544H7.514c.051 1.064 0 11.344 0 11.344h3.804z" fill="#B4EC50"/></svg>
